X: 1
T: Paddy Fahey's
R: reel
M: 4/4
L: 1/8
K: Cmaj
cBGF DEFD|G2DG BcdB|cBGA Bcde|f2ed cedB|
cBGF DEFD|G2DG BcdB|cBGA Bcdc|BGFD ECCB:|
|:c2ge fdcd|cBGF DEFD|Gc~c2 gceg|fdcB Gc~c2|
Ecde fedc|_BdGA B3c|dggf defa|g^fdc =BG (3Bcd:|


Tune 1402	Setting 26255

